X:1
T:Il Silenzio
C:Guglielmo Brezza, Nini Rosso
Z:All Rights Reserved
L:1/4
M:4/4
K:Bb
V:1 treble nm="Track 0-4"
%%MIDI program 0
V:1
 z2 z F | B3 F/>B/ | d4 | B2 d- (3:2:2d B/ | F4 | (3:2:2z F/"Bb" B2- | B (3:2:2F B/ d3/2 c/4B/4 | %7
 d3/2 c/4[Bc]/4 d2- | d2 (3B c d |"Eb" e3/2 d/4[Bc]/4"F" c3/2 d/4[de]/4 | c2 (3A B c | %11
 d3/2 c/4[AB]/4"Bb" B3/2 c/4[cd]/4 | B3/2 c/4[cd]/4 B2- | B2 (3f d B | (3f d B"F" c3/2 d/4[de]/4 | %15
 c2 (3e c A | (3e c A"Bb" B3/2 c/4[cd]/4 | B2 (3f d B | (3f d B"F" F2- | F z (3e c A | %20
 (3e c A"Bb" B2- | B F B2- | B (3:2:2F B/ d2- | d2 B2 | d- (3:2:2d B/"F" F2- | F F"Bb" B2- | %26
 B2 z2 |"Bb" z2 (3f d B | (3f d B"F" c3/2 d/4[de]/4 | c2 (3e c A | (3e c A"Bb" B2- | B F B2- | %32
 B (3:2:2F B/ d2- | d2 B2 | d- (3:2:2d B/"F" F2- | F F"Bb" B2- | B2 B3/2 B/4B/4 | B B d2- | %38
 d2 z F- | F/ F/4F/4 F F B- | B3 z |] %41

